X: 1
T: Harum Scarum  v.1
T: Harem Scarem
P: piffero primo a0529
O: safd 114
F: http://ancients.sudburymuster.org/mus/med/pdf/hanoverharC0.pdf
Z: 2020 John Chambers <jc:trillian.mit.edu>
M: 2/4
L: 1/16
K: D
((3ABc |\
d2)f2 dfdf | c2e2 cece | d2f2 dfdf | B2g2 BgBg |\
d2f2 dfdf | c2e2 cece | dfdf cece | d2d2 d2 :|
|: z2 |\
d2AA F2D2 | F2A2 d4 | d2dd f2a2 | g2e2 c2A2 |\
d2AA F2D2 | F2A2 d4 | dcde f2a2 | gece d2 :|


